preferences/32/preferences-desktop-multimedia.svg

<?xml version="1.0" encoding="UTF-8" standalone="no"?>
<!-- Created with Inkscape (http://www.inkscape.org/) -->

<svg
   width="32"
   height="32"
   version="1.1"
   viewBox="0 0 32 32"
   id="svg22"
   sodipodi:docname="preferences-desktop-multimedia.svg"
   inkscape:version="1.1.2 (0a00cf5339, 2022-02-04)"
   xmlns:inkscape="http://www.inkscape.org/namespaces/inkscape"
   xmlns:sodipodi="http://sodipodi.sourceforge.net/DTD/sodipodi-0.dtd"
   xmlns:xlink="http://www.w3.org/1999/xlink"
   xmlns="http://www.w3.org/2000/svg"
   xmlns:svg="http://www.w3.org/2000/svg">
  <sodipodi:namedview
     id="namedview24"
     pagecolor="#ffffff"
     bordercolor="#666666"
     borderopacity="1.0"
     inkscape:showpageshadow="2"
     inkscape:pageopacity="0.0"
     inkscape:pagecheckerboard="0"
     inkscape:deskcolor="#d1d1d1"
     showgrid="false"
     inkscape:zoom="25.62"
     inkscape:cx="9.1725215"
     inkscape:cy="13.992974"
     inkscape:window-width="3440"
     inkscape:window-height="1356"
     inkscape:window-x="0"
     inkscape:window-y="0"
     inkscape:window-maximized="1"
     inkscape:current-layer="g884"
     inkscape:pageshadow="2" />
  <defs
     id="defs12">
    <linearGradient
       id="linearGradient1005-3-3"
       x1="5.2535"
       x2="9.3823996"
       y1="15.383"
       y2="2.9421"
       gradientTransform="matrix(0.99999,0,0,0.99999,1.632,-0.61743)"
       gradientUnits="userSpaceOnUse">
      <stop
         stop-color="#fa8200"
         offset="0"
         id="stop2" />
      <stop
         stop-color="#ff9600"
         offset=".36953"
         id="stop4" />
      <stop
         stop-color="#ffb400"
         offset="1"
         id="stop6" />
    </linearGradient>
    <filter
       id="filter4014"
       x="-0.062499933"
       y="-0.057692993"
       width="1.1249999"
       height="1.115386"
       color-interpolation-filters="sRGB">
      <feGaussianBlur
         stdDeviation="1.093751"
         id="feGaussianBlur9" />
    </filter>
    <linearGradient
       inkscape:collect="always"
       xlink:href="#linearGradient3487"
       id="linearGradient3403"
       gradientUnits="userSpaceOnUse"
       x1="6.9491749"
       y1="4.5549412"
       x2="11.215498"
       y2="59.052471" />
    <linearGradient
       id="linearGradient3487">
      <stop
         style="stop-color:#32373c;stop-opacity:1"
         offset="0"
         id="stop3481" />
      <stop
         id="stop3483"
         offset="0.36804965"
         style="stop-color:#1a1a1a;stop-opacity:1" />
      <stop
         style="stop-color:#31363b;stop-opacity:1"
         offset="1"
         id="stop3485" />
    </linearGradient>
    <linearGradient
       inkscape:collect="always"
       xlink:href="#linearGradient20604"
       id="linearGradient20558"
       gradientUnits="userSpaceOnUse"
       x1="25.802212"
       y1="20.373846"
       x2="25.111048"
       y2="58.912758" />
    <linearGradient
       id="linearGradient20604">
      <stop
         id="stop20598"
         offset="0"
         style="stop-color:#3d3d3d;stop-opacity:1" />
      <stop
         style="stop-color:#000000;stop-opacity:1"
         offset="0.61772454"
         id="stop20600" />
      <stop
         id="stop20602"
         offset="1"
         style="stop-color:#3d3d3d;stop-opacity:1" />
    </linearGradient>
    <filter
       inkscape:collect="always"
       style="color-interpolation-filters:sRGB"
       id="filter20720"
       x="-0.017024755"
       y="-0.016457183"
       width="1.0340491"
       height="1.0329144">
      <feGaussianBlur
         inkscape:collect="always"
         stdDeviation="0.14745661"
         id="feGaussianBlur20722" />
    </filter>
    <linearGradient
       gradientTransform="translate(0.36067797,-0.13016949)"
       xlink:href="#linearGradient4555"
       id="linearGradient4557"
       x1="43.499737"
       y1="64.011795"
       x2="44.141731"
       y2="0.30621234"
       gradientUnits="userSpaceOnUse" />
    <linearGradient
       id="linearGradient4555">
      <stop
         style="stop-color:#141618;stop-opacity:1"
         offset="0"
         id="stop4551" />
      <stop
         id="stop4559"
         offset="0.51820582"
         style="stop-color:#686868;stop-opacity:1" />
      <stop
         style="stop-color:#31363b;stop-opacity:1"
         offset="1"
         id="stop4553" />
    </linearGradient>
    <filter
       style="color-interpolation-filters:sRGB"
       id="filter4601"
       x="-0.030244762"
       width="1.0604895"
       y="-0.030100647"
       height="1.0602013">
      <feGaussianBlur
         stdDeviation="0.014790289"
         id="feGaussianBlur4603" />
    </filter>
    <linearGradient
       inkscape:collect="always"
       xlink:href="#a"
       id="linearGradient848"
       gradientUnits="userSpaceOnUse"
       gradientTransform="matrix(0.66667,0,0,0.63518,-256.38,-317.28)"
       y1="543.79999"
       x2="0"
       y2="502.66" />
    <linearGradient
       id="a"
       x2="0"
       y1="543.79999"
       y2="502.66"
       gradientTransform="matrix(0.66667,0,0,0.63518,-256.38,-317.28)"
       gradientUnits="userSpaceOnUse">
      <stop
         stop-color="#c6cdd1"
         offset="0"
         id="stop2-9" />
      <stop
         stop-color="#e0e5e7"
         offset="1"
         id="stop4-3" />
    </linearGradient>
    <linearGradient
       inkscape:collect="always"
       xlink:href="#a"
       id="linearGradient850"
       gradientUnits="userSpaceOnUse"
       gradientTransform="matrix(0.66667,0,0,0.63518,-256.38,-317.28)"
       y1="543.79999"
       x2="0"
       y2="502.66" />
    <linearGradient
       id="linearGradient901"
       x2="0"
       y1="543.79999"
       y2="502.66"
       gradientTransform="matrix(0.66667,0,0,0.63518,-256.38,-317.28)"
       gradientUnits="userSpaceOnUse">
      <stop
         stop-color="#c6cdd1"
         offset="0"
         id="stop897" />
      <stop
         stop-color="#e0e5e7"
         offset="1"
         id="stop899" />
    </linearGradient>
    <linearGradient
       inkscape:collect="always"
       id="linearGradient4183"
       xlink:href="#linearGradient4293"
       y1="525.79797"
       y2="540.79797"
       x1="391.57144"
       gradientUnits="userSpaceOnUse"
       x2="406.57147"
       gradientTransform="translate(-0.99999706,-0.02213112)" />
    <linearGradient
       inkscape:collect="always"
       id="linearGradient4293">
      <stop
         id="stop4295" />
      <stop
         offset="1"
         style="stop-opacity:0"
         id="stop4297" />
    </linearGradient>
    <linearGradient
       inkscape:collect="always"
       xlink:href="#linearGradient4391"
       id="linearGradient4296"
       y1="543.79797"
       y2="523.79797"
       x2="0"
       gradientUnits="userSpaceOnUse"
       gradientTransform="translate(0.10000835,-6.2e-5)" />
    <linearGradient
       inkscape:collect="always"
       id="linearGradient4391">
      <stop
         stop-color="#21c9fb"
         id="stop5" />
      <stop
         offset="1"
         stop-color="#197cf1"
         id="stop7" />
    </linearGradient>
    <linearGradient
       inkscape:collect="always"
       xlink:href="#linearGradient4227"
       id="linearGradient4220"
       y1="524.79797"
       x1="393.57144"
       y2="538.79797"
       x2="407.57147"
       gradientUnits="userSpaceOnUse"
       gradientTransform="matrix(1.0916387,0,0,1,-38.241287,1.099918)" />
    <linearGradient
       inkscape:collect="always"
       id="linearGradient4227">
      <stop
         style="stop-color:#292c2f"
         id="stop4229" />
      <stop
         offset="1"
         style="stop-opacity:0"
         id="stop4231" />
    </linearGradient>
    <linearGradient
       inkscape:collect="always"
       xlink:href="#linearGradient4159"
       id="linearGradient4235-5"
       y1="-533.79797"
       y2="-523.79797"
       x2="0"
       gradientUnits="userSpaceOnUse"
       gradientTransform="matrix(1.0916387,0,0,1,-36.058043,-2.999998)" />
    <linearGradient
       inkscape:collect="always"
       id="linearGradient4159">
      <stop
         style="stop-color:#2a2c2f"
         id="stop4161" />
      <stop
         offset="1"
         style="stop-color:#424649"
         id="stop4163" />
    </linearGradient>
    <linearGradient
       inkscape:collect="always"
       xlink:href="#linearGradient4159"
       id="linearGradient4270"
       y1="543.79797"
       y2="539.79797"
       x2="0"
       gradientUnits="userSpaceOnUse"
       gradientTransform="translate(0.10000835,-6.2e-5)" />
  </defs>
  <g
     id="g884"
     transform="matrix(0.91508479,0,0,1,-350.26964,-516.04031)">
    <g
       transform="translate(0.08779964,-0.00198712)"
       id="g35">
      <path
         d="M 32,9 31,8 1.123,27 3.555,30 H 28.8 c 1.774,0 3.2,-1.426 3.2,-3.2 z"
         transform="translate(384.57,515.8)"
         id="path19"
         style="fill:url(#linearGradient848)"
         inkscape:connector-curvature="0" />
      <path
         d="M 3.2,2 A 3.192,3.192 0 0 0 0,5.2 V 26.8 C 0,28.575 1.426,30 3.2,30 H 3.555 L 1.123,27 31,8 32,9 V 5.2 C 32,3.425 30.574,2 28.8,2 Z"
         transform="translate(384.57,515.8)"
         id="path21"
         style="fill:url(#linearGradient850)"
         inkscape:connector-curvature="0" />
      <path
         d="m 387.07,517.8 a 2.492,2.492 0 0 0 -2.5,2.5 v 1.5 h 32 v -1.5 a 2.492,2.492 0 0 0 -2.5,-2.5 z"
         id="path23"
         inkscape:connector-curvature="0"
         style="fill:#566069" />
      <path
         d="m 384.57,521.8 h 32 v 1 h -32 z"
         id="path25"
         inkscape:connector-curvature="0"
         style="fill:#3daee9" />
      <rect
         x="385.57001"
         y="523.79999"
         width="30"
         height="20"
         ry="2"
         id="rect27"
         style="fill:#ffffff" />
      <rect
         x="412.58783"
         y="518.75732"
         width="2"
         height="1.7553793"
         rx="1"
         id="rect29"
         style="fill:#eff0f1;stroke-width:0.936851" />
    </g>
    <path
       inkscape:connector-curvature="0"
       style="opacity:0.2;fill:url(#linearGradient4183);fill-rule:evenodd"
       id="path4167"
       d="m 384.57143,543.77587 30,-20 1.00001,1 -10e-6,20.99997 -29,3e-5 z" />
    <rect
       width="30"
       x="385.67142"
       y="523.79791"
       height="20.000031"
       style="fill:url(#linearGradient4296)"
       id="rect4653-5"
       ry="2.0000875"
       rx="2.0999873" />
    <rect
       width="13.099665"
       x="394.67145"
       y="525.79791"
       rx="6.5498323"
       height="12"
       style="opacity:0.3;fill:#ebf9fe;stroke-width:1.04482"
       id="rect4225-8" />
    <path
       style="opacity:0.2;fill:url(#linearGradient4220);fill-rule:evenodd;stroke-width:1.04482"
       id="path4212"
       d="m 405.03561,528.3038 -7.69051,7.04492 9.22563,8.44922 h 9.93348 v -4.90039 z" />
    <rect
       width="10.916388"
       x="395.76309"
       y="-536.79791"
       rx="5.4581938"
       height="10"
       style="fill:url(#linearGradient4235-5);stroke-width:1.04482"
       id="rect4227-8"
       transform="scale(1,-1)" />
    <path
       inkscape:connector-curvature="0"
       style="fill:#ffffff;fill-rule:evenodd;stroke-width:1.04482"
       id="path4237-6"
       d="m 399.03797,528.798 v 6 l 4.91238,-3 z" />
    <rect
       width="29.999981"
       x="385.67145"
       y="539.79791"
       height="3.999974"
       style="fill:url(#linearGradient4270)"
       id="rect4262"
       ry="1.999987"
       rx="1.8995478" />
    <rect
       width="15.999989"
       x="387.48395"
       y="540.79791"
       rx="1"
       height="2"
       style="fill:#3092df"
       id="rect4430-3" />
    <rect
       width="2.2895441"
       x="401.48395"
       y="540.79791"
       rx="1.1447721"
       height="2"
       style="fill:#daebf9;stroke-width:1.06994"
       id="rect4432-0" />
  </g>
  <path
     style="display:inline;mix-blend-mode:normal;fill:url(#linearGradient3403);fill-opacity:1;stroke:url(#linearGradient20558);stroke-width:1.16242;stroke-linecap:butt;stroke-linejoin:round;stroke-miterlimit:4;stroke-dasharray:none;stroke-opacity:1;filter:url(#filter20720)"
     d="M 4.7043071,3.9814882 4.6913695,60.80196 H 58.59546 l 1.022155,-2.866369 c 0,0 -23.87537,0.766388 -32.844441,-4.140386 C 16.257548,48.042344 11.401114,4.0978197 11.401114,4.0978197 Z"
     id="path1686"
     sodipodi:nodetypes="ccccscc"
     transform="matrix(0.49530655,0,0,0.49530655,0.32409325,0.23228439)"
     inkscape:label="folder" />
  <rect
     style="display:inline;fill:none;fill-opacity:1;stroke:url(#linearGradient4557);stroke-width:3.71366;stroke-linejoin:round;stroke-miterlimit:7.8;stroke-dasharray:none;stroke-opacity:0.995146;filter:url(#filter4601)"
     id="rect4539"
     width="62.567089"
     height="62.866646"
     x="1.0323594"
     y="0.59551275"
     ry="6.2447233"
     rx="5.8029528"
     transform="matrix(0.46399463,0,0,0.4630489,1.1562887,1.2331482)"
     inkscape:label="contour" />
</svg>

<svg width="32" height="32" version="1.1" viewBox="0 0 32 32" xmlns="http://www.w3.org/2000/svg" xmlns:xlink="http://www.w3.org/1999/xlink">
<defs>
<linearGradient id="linearGradient3403" x1="6.9492" x2="11.215" y1="4.5549" y2="59.052" gradientUnits="userSpaceOnUse">
<stop style="stop-color:#32373c" offset="0"/>
<stop style="stop-color:#1a1a1a" offset=".36805"/>
<stop style="stop-color:#31363b" offset="1"/>
</linearGradient>
<linearGradient id="linearGradient20558" x1="25.802" x2="25.111" y1="20.374" y2="58.913" gradientUnits="userSpaceOnUse">
<stop style="stop-color:#3d3d3d" offset="0"/>
<stop offset=".61772"/>
<stop style="stop-color:#3d3d3d" offset="1"/>
</linearGradient>
<linearGradient id="linearGradient4557" x1="43.5" x2="44.142" y1="64.012" y2=".30621" gradientTransform="translate(.36068 -.13017)" gradientUnits="userSpaceOnUse">
<stop style="stop-color:#141618" offset="0"/>
<stop style="stop-color:#686868" offset=".51821"/>
<stop style="stop-color:#31363b" offset="1"/>
</linearGradient>
<linearGradient id="linearGradient848" x2="0" y1="543.8" y2="502.66" gradientTransform="matrix(.66667 0 0 .63518 -256.38 -317.28)" gradientUnits="userSpaceOnUse" xlink:href="#a"/>
<linearGradient id="a" x2="0" y1="543.8" y2="502.66" gradientTransform="matrix(.66667 0 0 .63518 -256.38 -317.28)" gradientUnits="userSpaceOnUse">
<stop stop-color="#c6cdd1" offset="0"/>
<stop stop-color="#e0e5e7" offset="1"/>
</linearGradient>
<linearGradient id="linearGradient4183" x1="391.57" x2="406.57" y1="525.8" y2="540.8" gradientTransform="translate(-1 -.022131)" gradientUnits="userSpaceOnUse">
<stop offset="0"/>
<stop style="stop-opacity:0" offset="1"/>
</linearGradient>
<linearGradient id="linearGradient4296" x2="0" y1="543.8" y2="523.8" gradientTransform="translate(.10001 -6.2e-5)" gradientUnits="userSpaceOnUse">
<stop stop-color="#21c9fb" offset="0"/>
<stop stop-color="#197cf1" offset="1"/>
</linearGradient>
<linearGradient id="linearGradient4220" x1="393.57" x2="407.57" y1="524.8" y2="538.8" gradientTransform="matrix(1.0916 0 0 1 -38.241 1.0999)" gradientUnits="userSpaceOnUse">
<stop style="stop-color:#292c2f" offset="0"/>
<stop style="stop-opacity:0" offset="1"/>
</linearGradient>
<linearGradient id="linearGradient4235-5" x2="0" y1="-533.8" y2="-523.8" gradientTransform="matrix(1.0916 0 0 1 -36.058 -3)" gradientUnits="userSpaceOnUse" xlink:href="#linearGradient4159"/>
<linearGradient id="linearGradient4159">
<stop style="stop-color:#2a2c2f" offset="0"/>
<stop style="stop-color:#424649" offset="1"/>
</linearGradient>
<linearGradient id="linearGradient4270" x2="0" y1="543.8" y2="539.8" gradientTransform="translate(.10001 -6.2e-5)" gradientUnits="userSpaceOnUse" xlink:href="#linearGradient4159"/>
</defs>
<g transform="matrix(.91508 0 0 1 -350.27 -516.04)">
<g transform="translate(.0878 -.0019871)">
<path transform="translate(384.57,515.8)" d="m32 9-1-1-29.877 19 2.432 3h25.245c1.774 0 3.2-1.426 3.2-3.2z" style="fill:url(#linearGradient848)"/>
<path transform="translate(384.57,515.8)" d="m3.2 2a3.192 3.192 0 0 0-3.2 3.2v21.6c0 1.775 1.426 3.2 3.2 3.2h0.355l-2.432-3 29.877-19 1 1v-3.8c0-1.775-1.426-3.2-3.2-3.2z" style="fill:url(#linearGradient848)"/>
<path d="m387.07 517.8a2.492 2.492 0 0 0-2.5 2.5v1.5h32v-1.5a2.492 2.492 0 0 0-2.5-2.5z" style="fill:#566069"/>
<path d="m384.57 521.8h32v1h-32z" style="fill:#3daee9"/>
<rect x="385.57" y="523.8" width="30" height="20" ry="2" style="fill:#fff"/>
<rect x="412.59" y="518.76" width="2" height="1.7554" rx="1" style="fill:#eff0f1;stroke-width:.93685"/>
</g>
<path d="m384.57 543.78 30-20 1 1-1e-5 21-29 3e-5z" style="fill-rule:evenodd;fill:url(#linearGradient4183);opacity:.2"/>
<rect x="385.67" y="523.8" width="30" height="20" rx="2.1" ry="2.0001" style="fill:url(#linearGradient4296)"/>
<rect x="394.67" y="525.8" width="13.1" height="12" rx="6.5498" style="fill:#ebf9fe;opacity:.3;stroke-width:1.0448"/>
<path d="m405.04 528.3-7.6905 7.0449 9.2256 8.4492h9.9335v-4.9004z" style="fill-rule:evenodd;fill:url(#linearGradient4220);opacity:.2;stroke-width:1.0448"/>
<rect transform="scale(1,-1)" x="395.76" y="-536.8" width="10.916" height="10" rx="5.4582" style="fill:url(#linearGradient4235-5);stroke-width:1.0448"/>
<path d="m399.04 528.8v6l4.9124-3z" style="fill-rule:evenodd;fill:#fff;stroke-width:1.0448"/>
<rect x="385.67" y="539.8" width="30" height="4" rx="1.8995" ry="2" style="fill:url(#linearGradient4270)"/>
<rect x="387.48" y="540.8" width="16" height="2" rx="1" style="fill:#3092df"/>
<rect x="401.48" y="540.8" width="2.2895" height="2" rx="1.1448" style="fill:#daebf9;stroke-width:1.0699"/>
</g>
<path transform="matrix(.49531 0 0 .49531 .32409 .23228)" d="m4.7043 3.9815-0.012938 56.82h53.904l1.0222-2.8664s-23.875 0.76639-32.844-4.1404c-10.516-5.7529-15.372-49.697-15.372-49.697z" style="fill:url(#linearGradient3403);mix-blend-mode:normal;stroke-linejoin:round;stroke-width:1.1624;stroke:url(#linearGradient20558)"/>
<rect transform="matrix(.46399 0 0 .46305 1.1563 1.2331)" x="1.0324" y=".59551" width="62.567" height="62.867" rx="5.803" ry="6.2447" style="fill:none;stroke-linejoin:round;stroke-miterlimit:7.8;stroke-opacity:.99515;stroke-width:3.7137;stroke:url(#linearGradient4557)"/>
</svg>
